icons/pan.svg

<!--
  - The MIT License (MIT)
  -
  - Copyright (c) 2015-2024 Elior "Mallowigi" Boukhobza
  -
  - Permission is hereby granted, free of charge, to any person obtaining a copy
  - of this software and associated documentation files (the "Software"), to deal
  - in the Software without restriction, including without limitation the rights
  - to use, copy, modify, merge, publish, distribute, sublicense, and/or sell
  - copies of the Software, and to permit persons to whom the Software is
  - furnished to do so, subject to the following conditions:
  -
  - The above copyright notice and this permission notice shall be included in all
  - copies or substantial portions of the Software.
  -
  - THE SOFTWARE IS PROVIDED "AS IS", WITHOUT WARRANTY OF ANY KIND, EXPRESS OR
  - IMPLIED, INCLUDING BUT NOT LIMITED TO THE WARRANTIES OF MERCHANTABILITY,
  - FITNESS FOR A PARTICULAR PURPOSE AND NONINFRINGEMENT. IN NO EVENT SHALL THE
  - AUTHORS OR COPYRIGHT HOLDERS BE LIABLE FOR ANY CLAIM, DAMAGES OR OTHER
  - LIABILITY, WHETHER IN AN ACTION OF CONTRACT, TORT OR OTHERWISE, ARISING FROM,
  - OUT OF OR IN CONNECTION WITH THE SOFTWARE OR THE USE OR OTHER DEALINGS IN THE
  - SOFTWARE.
  -
  -->

<svg version="1.1" xmlns="http://www.w3.org/2000/svg" width="16px" height="16px" viewBox="0 0 512 512">
  <path fill="#b70200" data-iconColor="Pan"
        d="M488.4013672,47.1972656H23.5991211V0h464.8022461V47.1972656z M488.4013672,92.9604492H23.5991211v47.1972656h464.8022461V92.9604492z M209.5195312,185.9208984H23.5991211v47.1972656h185.9204102V185.9208984z M488.4013672,185.9208984H302.4804688v47.1972656h185.9208984V185.9208984z M209.5195312,278.8808594H23.5991211v47.1972656h185.9204102V278.8808594z M488.4013672,278.8808594H302.4804688v47.1972656h185.9208984V278.8808594z M488.4013672,371.8417969H23.5991211v47.1972656h464.8022461V371.8417969z M209.5195312,464.8027344H23.5991211V512h185.9204102V464.8027344z M488.4013672,464.8027344H302.4804688V512h185.9208984V464.8027344z"/>
</svg>

<svg xmlns="http://www.w3.org/2000/svg" viewBox="0 0 512 512"><path fill="#b70200" d="M488.401 47.197H23.6V0h464.802zm0 45.763H23.6v47.198h464.802zM209.52 185.92H23.6v47.198h185.92zm278.881 0h-185.92v47.198H488.4zM209.52 278.88H23.6v47.198h185.92zm278.881 0h-185.92v47.198H488.4zm0 92.962H23.6v47.197h464.802zm-278.881 92.96H23.6V512h185.92zm278.881 0h-185.92V512H488.4z" data-iconColor="Pan"/></svg>
